src/Palette-Dark/16/symbolic/status/mpi-symbolic.svg

<?xml version="1.0" encoding="UTF-8" standalone="no"?>
<!-- Created with Inkscape (http://www.inkscape.org/) -->

<svg
   width="16"
   height="16"
   viewBox="0 0 16 16"
   version="1.1"
   id="svg5"
   inkscape:version="1.4.3 (0d15f75042, 2025-12-25)"
   sodipodi:docname="mpi-symbolic.svg"
   xmlns:inkscape="http://www.inkscape.org/namespaces/inkscape"
   xmlns:sodipodi="http://sodipodi.sourceforge.net/DTD/sodipodi-0.dtd"
   xmlns="http://www.w3.org/2000/svg"
   xmlns:svg="http://www.w3.org/2000/svg">
  <sodipodi:namedview
     id="namedview7"
     pagecolor="#ffffff"
     bordercolor="#000000"
     borderopacity="0.25"
     inkscape:showpageshadow="2"
     inkscape:pageopacity="0.0"
     inkscape:pagecheckerboard="0"
     inkscape:deskcolor="#d1d1d1"
     inkscape:document-units="px"
     showgrid="false"
     showguides="true"
     inkscape:zoom="51.875"
     inkscape:cx="8"
     inkscape:cy="8.0096386"
     inkscape:window-width="1920"
     inkscape:window-height="1010"
     inkscape:window-x="0"
     inkscape:window-y="0"
     inkscape:window-maximized="1"
     inkscape:current-layer="svg5" />
  <defs
     id="defs2">
    <style
       id="current-color-scheme"
       type="text/css">
        .ColorScheme-Text { color:#dfdfdf; } .ColorScheme-Highlight { color:#4285f4; } .ColorScheme-NeutralText { color:#ff9800; } .ColorScheme-PositiveText { color:#4caf50; } .ColorScheme-NegativeText { color:#f44336; }
     </style>
  </defs>
  <path
     id="path2380"
     style="fill:currentColor;stroke-linecap:round;stroke-linejoin:round"
     class="ColorScheme-Text"
     d="M 7,2 A 2,2 0 0 0 5,4 V 9.171875 C 4.6788433,9.05822 4.3406737,9.000097 4,9 2.3431477,9 1,10.343148 1,12 c 0,1.656852 1.3431477,3 3,3 1.6568523,0 3,-1.343148 3,-3 V 4 h 6 V 9.171875 C 12.678843,9.05822 12.340674,9.000097 12,9 c -1.656852,0 -3,1.343148 -3,3 0,1.656852 1.343148,3 3,3 1.656852,0 3,-1.343148 3,-3 V 4 A 2,2 0 0 0 13,2 Z m -3,9 c 0.5522844,0 1,0.447716 1,1 0,0.552284 -0.4477156,1 -1,1 -0.5522844,0 -1,-0.447716 -1,-1 0,-0.552284 0.4477156,-1 1,-1 z m 8,0 c 0.552284,0 1,0.447716 1,1 0,0.552284 -0.447716,1 -1,1 -0.552284,0 -1,-0.447716 -1,-1 0,-0.552284 0.447716,-1 1,-1 z" />
</svg>

<?xml version="1.0" encoding="UTF-8" standalone="no"?>
<!-- Created with Inkscape (http://www.inkscape.org/) -->

<svg
   width="16"
   height="16"
   viewBox="0 0 16 16"
   version="1.1"
   id="svg5"
   inkscape:version="1.4.3 (0d15f75042, 2025-12-25)"
   sodipodi:docname="mpi-symbolic.svg"
   xmlns:inkscape="http://www.inkscape.org/namespaces/inkscape"
   xmlns:sodipodi="http://sodipodi.sourceforge.net/DTD/sodipodi-0.dtd"
   xmlns="http://www.w3.org/2000/svg"
   xmlns:svg="http://www.w3.org/2000/svg">
  <sodipodi:namedview
     id="namedview7"
     pagecolor="#ffffff"
     bordercolor="#000000"
     borderopacity="0.25"
     inkscape:showpageshadow="2"
     inkscape:pageopacity="0.0"
     inkscape:pagecheckerboard="0"
     inkscape:deskcolor="#d1d1d1"
     inkscape:document-units="px"
     showgrid="false"
     showguides="true"
     inkscape:zoom="51.875"
     inkscape:cx="7.9903614"
     inkscape:cy="8.0096386"
     inkscape:window-width="1920"
     inkscape:window-height="1012"
     inkscape:window-x="0"
     inkscape:window-y="0"
     inkscape:window-maximized="1"
     inkscape:current-layer="svg5" />
  <defs
     id="defs2">
    <style
       id="current-color-scheme"
       type="text/css">
        .ColorScheme-Text { color:#dfdfdf; } .ColorScheme-Highlight { color:#4285f4; } .ColorScheme-NeutralText { color:#ff9800; } .ColorScheme-PositiveText { color:#4caf50; } .ColorScheme-NegativeText { color:#f44336; }
     </style>
  </defs>
  <path
     id="path2380"
     style="fill:currentColor;stroke-linecap:round;stroke-linejoin:round"
     class="ColorScheme-Text"
     d="M 7 2 A 2 2 0 0 0 5 4 L 5 9.171875 C 4.6788433 9.05822 4.3406737 9.000097 4 9 C 2.3431477 9 1 10.343148 1 12 C 1 13.656852 2.3431477 15 4 15 C 5.6568523 15 7 13.656852 7 12 L 7 4 L 13 4 L 13 9.171875 C 12.678843 9.05822 12.340674 9.000097 12 9 C 10.343148 9 9 10.343148 9 12 C 9 13.656852 10.343148 15 12 15 C 13.656852 15 15 13.656852 15 12 L 15 4 A 2 2 0 0 0 13 2 L 7 2 z M 4 11 C 4.5522844 11 5 11.447716 5 12 C 5 12.552284 4.5522844 13 4 13 C 3.4477156 13 3 12.552284 3 12 C 3 11.447716 3.4477156 11 4 11 z M 12 11 C 12.552284 11 13 11.447716 13 12 C 13 12.552284 12.552284 13 12 13 C 11.447716 13 11 12.552284 11 12 C 11 11.447716 11.447716 11 12 11 z " />
</svg>
